X:1
T:The Word of God
T:The Word of God
T:Haldor Lillenas
T:Haldor Lillenas, 1919
T:Public Domain Courtesy of the Cyber Hymnal™
T:Public Domain Courtesy of the Cyber Hymnal™
C:Haldor Lillenas
Z:Public Domain
Z:Courtesy of the Cyber Hymnal™
%%score ( 1 2 ) 3 ( 4 5 )
L:1/8
Q:1/4=115
M:4/4
K:Bb
V:1 treble 
V:2 treble 
V:3 treble 
V:4 bass 
V:5 bass 
V:1
 [DF]2 | [DB]2 [DB]2 [DB]2 [DF]2 | [EG]2 [DF]2 [DF]2 [DF]2 | [Fc]2 [Fc]2 [Fc]2 F2 | %4
w: 1.~The|Word of God is|like a light That|shines se- rene- ly|
w: 2.~The|Word of God is|like a sword That|pierc- es hearts, thus|
w: 3.~The|Word of God is|like the bread On|which the hosts of|
w: 4.~The|Word of God is|like a fire, It|kin- dles in our|
 [EG]2 [DF]2 [DF]2 [DF]2 | [Fd]2 [Fd]2 [Fd]2 [FB]2 | [Gc]2 [EG]2 [EG]2 [E^F][EG] | %7
w: thro’ the night; Its|rays will light my|wear- y way To the|
w: saith the Lord; And|like a ham- mer,|weight- y, strong, That can|
w: old were fed; From|Heav’n it came to|fill our need, Hung- ry|
w: hearts de- sire To|see its Au- thor|face to face And to|
 [=Ec]2 [E^F][EG] [Ec]2 [GB]2 | [FA]2 [=EB]2 !fermata![_Ec]2 ||"^Refrain" [DF]2 | %10
w: realms of a fair, un-|end- ing day.||
w: break up the rocks of|sin and wrong.||
w: hearts it will sat- is-|fy in- deed.||
w: know all the full- ness|of His grace.||
 [DF]2 [DB]2 [DA]2 [DG]2 | [DF]2 [B,D]2 [DF]2 [DF]2 | [DF]2 [DB]2 [DA]2 [DG]2 | %13
w: |||
w: |||
w: |||
w: |||
 [EA]2 [CE]2 [CE]2 ([A,C][B,D]) | [CE]2 [DF]2 [EG]2 [EA]2 | [Ec]2 [EB]2 [EA]2 [EG]2 | %16
w: |||
w: |||
w: |||
w: |||
 [DF]2 [DG]2 [DF]2 [DG]2 | [EF]2 [EG]2 !fermata![EF]2 [EF]2 | [DF]2 [DB]2 [DA]2 [DG]2 | %19
w: |||
w: |||
w: |||
w: |||
 [DF]2 [B,D]2 [DF]2 D2 | D2 D2 [C=E]2 [C^F]2 | [B,A]2 [B,G]2 [DG]2 [EG]2 | %22
w: |||
w: |||
w: |||
w: |||
 [^CB]2 [CB]2 [CA]2 [CG]2 | [DF]2 [DB]2 !fermata![Fd]2 [Ff][Ge] | [Fd]2 [FB]2 [Fd]2 [FB][FB] | %25
w: |||
w: |||
w: |||
w: |||
 !fermata![Ac]2 !fermata![Af]2 !fermata![FB]2 x5 |] %26
w: |
w: |
w: |
w: |
V:2
 x2 | x8 | x8 | x6 F2 | x8 | x8 | x8 | x8 | x6 || x2 | x8 | x8 | x8 | x8 | x8 | x8 | x8 | x8 | x8 | %19
 x6 D2 | D2 D2 x4 | x8 | x8 | x8 | x8 | x11 |] %26
V:3
 z2 | z8 | z8 | z8 | z8 | z8 | z8 | z8 | z6 || d2 |"^Soprano or Tenor Obligato" d2 d2 d2 d2 | %11
w: |||||||||The|Word of God is|
 (dc) (Bc) d2 d2 | d2 d2 d2 d2 | (ed) (cd) e2 e2 | e2 e2 e2 e2 | e2 e2 e2 e2 | %16
w: strong * and * sure, For-|ev- er- more it|shall * en- * dure, When|o- ceans cease to|kiss the shore, When|
 d2 d2 d2 d2"^riten." | (cB) (AG) !fermata!F2 F2 | d2 d2 d2 d2 | (dc) (Bc) d2 d2 | d2 c2 B2 A2 | %21
w: suns shall set to|rise * no * more; ’Mid|crash of worlds it|shall * re- * main Un-|shak- en midst the|
 G2 d2 d2 e2 | ^c2 c2 c2 c2 | d2 d2 !fermata!f2 dc | B2 d2 f2 dd | %25
w: star- ry rain, Up-|on its firm foun-|da- tion strong, I will|plant my feet thro’ the|
 !fermata!e2 !fermata!e2 !fermata!d2 x5 |] %26
w: ag- es long.|
V:4
 [B,,B,]2 | [B,,F,]2 [B,,F,]2 [B,,F,]2 [B,,B,]2 | [B,,B,]2 [B,,B,]2 [B,,B,]2 [B,,B,]2 | %3
 [F,A,]2 [F,A,]2 A,2 A,2 | [B,,B,]2 [B,,B,]2 [B,,B,]2 [B,,B,]2 | %5
 [B,,B,]2 [B,,B,]2 [B,,B,]2 [D,B,]2 | [E,B,]2 [E,B,]2 [E,B,]2 [E,A,][E,B,] | %7
 G,2 [C,C][C,C] [C,G,]2 [=E,C]2 | [F,C]2 [G,C]2 !fermata![A,C]2 || B,2 | %10
 [B,,B,]2 [B,,F,]2 [B,,F,]2 [B,,B,]2 | [B,,B,]2 [B,,F,]2 [B,,B,]2 [B,,B,]2 | %12
 [B,,B,]2 [B,,F,]2 [B,,B,]2 [B,,B,]2 | [F,C]2 [F,A,]2 [F,A,]2 F,2 | F,2 F,2 F,2 F,2 | %15
 [F,A,]2 F,2 [F,,F,]2 F,2 | [B,,B,]2 [B,,B,]2 [=B,,^G,]2 [B,,G,]2 | %17
 [C,A,]2 [C,A,]2 !fermata!A,2 A,2 | [B,,B,]2 [B,,F,]2 [B,,B,]2 [B,,B,]2 | %19
 [B,,B,]2 [B,,F,]2 [B,,B,]2 [B,,F,]2 | [D,^F,]2 [D,F,]2 [D,G,]2 [D,A,]2 | %21
 [G,,G,]2 [G,,G,]2 [G,B,]2 [E,B,]2 | [=E,G,]2 [E,G,]2 [E,A,]2 [E,B,]2 | %23
 [F,B,]2 [F,B,]2 !fermata![F,B,]2 [D,B,][E,B,] | [F,B,]2 [F,D]2 [F,B,]2 [F,D][F,D] | %25
 !fermata![F,F]2 !fermata![F,,F,E]2 !fermata![B,,D]7 |] %26
V:5
 x2 | x8 | x8 | x4 (F,E,) (D,C,) | x8 | x8 | x8 | G,2 x6 | x6 || B,2 | x8 | x8 | x8 | x6 F,2 | %14
 F,2 F,2 F,2 F,2 | x2 F,2 F,2 x2 | x8 | x4 (F,E,) (D,C,) | x8 | x8 | x8 | x8 | x8 | x8 | x8 | %25
 x11 |] %26

